public/svg/foryard-tech.svg

<svg height="54" viewBox="0 0 336 54" width="336" xmlns="http://www.w3.org/2000/svg" xmlns:xlink="http://www.w3.org/1999/xlink"><linearGradient id="a" x1="14.644444%" x2="85.344444%" y1="14.644444%" y2="85.355556%"><stop offset="0" stop-color="#8bf17f"/><stop offset="1" stop-color="#26e88a"/></linearGradient><g fill="none" fill-rule="evenodd" transform="translate(0 -1)"><g fill-rule="nonzero" transform="translate(0 1)"><ellipse cx="19.884194" cy="51.71371" fill="#e8e8e8" rx="12.193548" ry="2.177419"/><circle cx="19.884194" cy="19.705645" fill="url(#a)" r="19.596774"/><g fill="#202d3a"><path d="m56.4909677 12.3808065v6.1925806h10.8391936v4.3548387h-10.8391936v8.5354839h-5.4217742v-23.42903228h17.6980646v4.35483868z"/><path d="m80.3293548 30.2835484c-1.8957815-.9981869-3.4817659-2.4968142-4.5856451-4.3330645-2.2062299-3.8445172-2.2062299-8.571128 0-12.4156452 1.1027466-1.8360581 2.6891197-3.3335461 4.5856451-4.32870967 4.12426-2.10185721 9.0055787-2.10185721 13.1298387 0 3.8937966 2.07441107 6.3264946 6.12681297 6.3264946 10.53870967 0 4.4118968-2.432698 8.4642986-6.3264946 10.5387097-4.1256192 2.096189-9.0042194 2.096189-13.1298387 0zm10.3209678-3.9977419c1.1001371-.6284107 2.0045806-1.5494357 2.6129032-2.6608065 1.2716491-2.4320289 1.2716491-5.3326485 0-7.7646774-.6084134-1.1101789-1.5129317-2.0297726-2.6129032-2.6564516-2.3364011-1.271652-5.1582763-1.271652-7.4946774 0-1.0999715.626679-2.0044899 1.5462727-2.6129033 2.6564516-1.2716491 2.4320289-1.2716491 5.3326485 0 7.7646774.6083227 1.1113708 1.5127662 2.0323958 2.6129033 2.6608065 2.3364011 1.2716519 5.1582763 1.2716519 7.4946774 0z"/><path d="m122.066129 31.455-4.515968-6.5322581h-4.98629v6.5322581h-5.434839v-23.42032258h10.13371c1.854785-.04427566 3.697547.30913091 5.404355 1.03645161 1.438487.61696222 2.665843 1.64001137 3.531774 2.94387097.855593 1.3545516 1.29192 2.9316925 1.254194 4.5333871.129879 3.2402525-1.801521 6.2089499-4.816452 7.4032258l5.251935 7.5295161zm-1.371774-17.955c-.849194-.7054839-2.085968-1.053871-3.714678-1.053871h-4.415806v8.1609678h4.415806c1.62871 0 2.865484-.352742 3.714678-1.0669355.812653-.7947262 1.270734-1.8834214 1.270734-3.0200807 0-1.1366592-.458081-2.2253544-1.270734-3.0200806z"/><path d="m145.987258 23.1546774v8.3003226h-5.417419v-8.3743548l-9.05371-15.04596778h5.752742l6.257903 10.40370968 6.253549-10.40370968h5.321612z"/><path d="m174.694355 26.433871h-10.887097l-2.072903 5.021129h-5.539355l10.451613-23.42032258h5.352097l10.469032 23.42032258h-5.700484zm-1.707097-4.1153226-3.714677-8.9666129-3.710323 8.9666129z"/><path d="m203.16629 31.455-4.515967-6.5322581h-4.986291v6.5322581h-5.421774v-23.42032258h10.138065c1.862088-.04740214 3.712606.30606757 5.426129 1.03645161 1.438486.61696222 2.665843 1.64001137 3.531774 2.94387097.841832 1.3588378 1.264443 2.935677 1.215 4.5333871.129879 3.2402525-1.801521 6.2089499-4.816452 7.4032258l5.251936 7.5295161zm-1.371774-17.955c-.870968-.7054839-2.085968-1.053871-3.714677-1.053871h-4.415807v8.1609678h4.415807c1.628709 0 2.865484-.352742 3.714677-1.0669355.812653-.7947262 1.270734-1.8834214 1.270734-3.0200807 0-1.1366592-.458081-2.2253544-1.270734-3.0200806z"/><path d="m216.182903 8.03467742h10.638871c2.329744-.04715565 4.638256.45093417 6.741291 1.45451613 1.876955.90363535 3.456071 2.32559545 4.550806 4.09790325 2.160398 3.8193744 2.160398 8.4917546 0 12.311129-1.093601 1.7732538-2.673029 3.1954942-4.550806 4.0979032-2.102671 1.005084-4.4112 1.5046687-6.741291 1.458871h-10.638871zm10.368871 18.96532258c2.342903 0 4.211129-.6532258 5.604678-1.9596774 1.393548-1.3064516 2.090322-3.0730645 2.090322-5.2998387 0-2.2296774-.696774-3.997742-2.090322-5.3041936-1.393549-1.3064516-3.261775-1.9596774-5.604678-1.9596774h-4.951451v14.5233871z"/></g></g><path d="m252.967 32.279c-.723337 0-1.239998-.134332-1.55-.403s-.465-.5993314-.465-.992c0-.1240006.010333-.2738325.031-.4495s.051666-.3564991.093-.5425c.103334-.5580028.351331-1.0023317.744-1.333s.981663-.496 1.767-.496c.723337 0 1.239998.134332 1.55.403s.465.5993314.465.992c0 .1240006-.010333.2738325-.031.4495s-.051666.3564991-.093.5425c-.103334.5580028-.351331 1.0023317-.744 1.333s-.981663.496-1.767.496zm18.042.093c-.723337 0-1.286498-.1963314-1.6895-.589s-.6045-.9609963-.6045-1.705c0-.1446674.005167-.3409988.0155-.589s.036166-.4546658.0775-.62l1.86-10.788h-4.619l.341-2.077h3.255c.537336 0 .935165-.1084989 1.1935-.3255s.439166-.594164.5425-1.1315l.713-4.185h2.294l-.961 5.642h6.603l-.341 2.077h-6.603l-1.984 11.842.62.372 6.975-4.65 1.209 1.55-3.503 2.48c-.723337.5166693-1.348497.9454983-1.8755 1.2865s-1.002331.6148323-1.426.8215-.800832.3564995-1.1315.4495-.650998.1395-.961.1395zm19.778 0c-2.025343 0-3.585661-.563161-4.681-1.6895s-1.643-2.8468218-1.643-5.1615c0-1.4466739.216998-2.774494.651-3.9835s1.038496-2.2526623 1.8135-3.131 1.704995-1.5603309 2.79-2.046 2.26816-.7285 3.5495-.7285c.785337 0 1.508663.0929991 2.17.279s1.234831.4598315 1.7205.8215.862832.811164 1.1315 1.3485.403 1.1573298.403 1.86c0 .5580028-.129165 1.1366637-.3875 1.736s-.795663 1.1573307-1.612 1.674c-.816337.5166692-1.994326.9506649-3.534 1.302s-3.580487.5579997-6.1225.62c-.020667.1653342-.031.315166-.031.4495v.2635c0 .5580028.051666 1.0953307.155 1.612s.299665.976498.589 1.3795.692331.7233321 1.209.961 1.198662.3565 2.046.3565c.57867 0 1.100498-.067166 1.5655-.2015s.909331-.3409986 1.333-.62.836998-.6406644 1.24-1.085.831831-.9868301 1.2865-1.6275l1.705 1.054c-.909338 1.4880074-1.937494 2.6194961-3.0845 3.3945s-2.567825 1.1625-4.2625 1.1625zm2.263-14.725c-1.612008 0-2.924328.4856618-3.937 1.457s-1.632666 2.3663242-1.86 4.185l-.031.31c1.942676-.0620003 3.508161-.2118321 4.6965-.4495s2.097664-.5218317 2.728-.8525 1.048832-.6923314 1.2555-1.085.31-.7853314.31-1.178c0-.3306683-.056833-.6406652-.1705-.93s-.294499-.5424989-.5425-.7595-.573498-.3874994-.9765-.5115-.89383-.186-1.4725-.186zm16.12 14.725c-.992005 0-1.865163-.1653317-2.6195-.496s-1.384664-.7904971-1.891-1.3795-.888665-1.3019958-1.147-2.139-.3875-1.751495-.3875-2.7435c0-1.529341.216998-2.9088272.651-4.1385s1.022996-2.2784957 1.767-3.1465 1.617162-1.5344977 2.6195-1.9995 2.071828-.6975 3.2085-.6975c.847338 0 1.586164.1033323 2.2165.31s1.172831.4804983 1.6275.8215.821499.7491643 1.1005 1.2245.490833.9713307.6355 1.488l-2.077.806c-.310002-.992005-.76983-1.6636649-1.3795-2.015s-1.410495-.527-2.4025-.527c-1.364007 0-2.474829.4443289-3.3325 1.333s-1.431165 2.1699916-1.7205 3.844l-.31 1.86c-.062.3720019-.103333.6613323-.124.868s-.031.4133323-.031.62c0 1.3640068.356496 2.3714967 1.0695 3.0225s1.658494.9765 2.8365.9765c.351335 0 .707832-.0413329 1.0695-.124s.754331-.258332 1.178-.527.883498-.6613308 1.3795-1.178c.496002-.5166693 1.06433-1.2089957 1.705-2.077l1.736 1.023c-.496002.806004-1.002331 1.5241635-1.519 2.1545s-1.069497 1.1521646-1.6585 1.5655-1.229663.7284989-1.922.9455-1.451829.3255-2.2785.3255zm15.903-23.312h2.418l-1.798 10.726h.124c.599336-1.2813397 1.312329-2.2939963 2.139-3.038s1.890993-1.116 3.193-1.116c1.34334 0 2.402496.402996 3.1775 1.209s1.1625 1.9426593 1.1625 3.41c0 .3100016-.0155.6458315-.0465 1.0075s-.0775.7181649-.1395 1.0695l-1.612 9.672h-2.418l1.581-9.455c.062-.3720019.103333-.7078318.124-1.0075s.031-.5321658.031-.6975c0-.9506714-.216998-1.6998306-.651-2.2475s-1.105662-.8215-2.015-.8215c-.70267 0-1.327831.1549985-1.8755.465s-1.048831.733664-1.5035 1.271c-.082667.1033338-.211832.2634989-.3875.4805s-.356499.4856651-.5425.806-.361666.681998-.527 1.085-.289333.8318311-.372 1.2865l-1.488 8.835h-2.418z" fill="#202d3a"/></g></svg>

<?xml version="1.0" encoding="UTF-8"?>
<svg width="336px" height="54px" viewBox="0 0 336 54" version="1.1" xmlns="http://www.w3.org/2000/svg" xmlns:xlink="http://www.w3.org/1999/xlink">
    <!-- Generator: Sketch 50.2 (55047) - http://www.bohemiancoding.com/sketch -->
    <title>fydtech</title>
    <desc>Created with Sketch.</desc>
    <defs>
        <linearGradient x1="14.6444444%" y1="14.6444444%" x2="85.3444444%" y2="85.3555556%" id="linearGradient-1">
            <stop stop-color="#8BF17F" offset="0%"></stop>
            <stop stop-color="#26E88A" offset="100%"></stop>
        </linearGradient>
    </defs>
    <g id="Symbols" stroke="none" stroke-width="1" fill="none" fill-rule="evenodd">
        <g id="navbar-/-main-navbar-light" transform="translate(-130.000000, -26.000000)">
            <g id="fydtech" transform="translate(130.000000, 25.000000)">
                <g id="foryard_logo_Logo-FC" transform="translate(0.000000, 1.000000)" fill-rule="nonzero">
                    <ellipse id="Oval" fill="#E8E8E8" cx="19.8841935" cy="51.7137097" rx="12.1935484" ry="2.17741935"></ellipse>
                    <circle id="Oval" fill="url(#linearGradient-1)" cx="19.8841935" cy="19.7056452" r="19.5967742"></circle>
                    <polygon id="Shape" fill="#202D3A" points="56.4909677 12.3808065 56.4909677 18.5733871 67.3301613 18.5733871 67.3301613 22.9282258 56.4909677 22.9282258 56.4909677 31.4637097 51.0691935 31.4637097 51.0691935 8.03467742 68.7672581 8.03467742 68.7672581 12.3895161"></polygon>
                    <path d="M80.3293548,30.2835484 C78.4335733,29.2853615 76.8475889,27.7867342 75.7437097,25.9504839 C73.5374798,22.1059667 73.5374798,17.3793559 75.7437097,13.5348387 C76.8464563,11.6987806 78.4328294,10.2012926 80.3293548,9.20612903 C84.4536148,7.10427182 89.3349335,7.10427182 93.4591935,9.20612903 C97.3529901,11.2805401 99.7856881,15.332942 99.7856881,19.7448387 C99.7856881,24.1567355 97.3529901,28.2091373 93.4591935,30.2835484 C89.3335743,32.3797374 84.4549741,32.3797374 80.3293548,30.2835484 Z M90.6503226,26.2858065 C91.7504597,25.6573958 92.6549032,24.7363708 93.2632258,23.625 C94.5348749,21.1929711 94.5348749,18.2923515 93.2632258,15.8603226 C92.6548124,14.7501437 91.7502941,13.83055 90.6503226,13.203871 C88.3139215,11.932219 85.4920463,11.932219 83.1556452,13.203871 C82.0556737,13.83055 81.1511553,14.7501437 80.5427419,15.8603226 C79.2710928,18.2923515 79.2710928,21.1929711 80.5427419,23.625 C81.1510646,24.7363708 82.0555081,25.6573958 83.1556452,26.2858065 C85.4920463,27.5574584 88.3139215,27.5574584 90.6503226,26.2858065 Z" id="Shape" fill="#202D3A"></path>
                    <path d="M122.066129,31.455 L117.550161,24.9227419 L112.563871,24.9227419 L112.563871,31.455 L107.129032,31.455 L107.129032,8.03467742 L117.262742,8.03467742 C119.117527,7.99040176 120.960289,8.34380833 122.667097,9.07112903 C124.105584,9.68809125 125.33294,10.7111404 126.198871,12.015 C127.054464,13.3695516 127.490791,14.9466925 127.453065,16.5483871 C127.582944,19.7886396 125.651544,22.757337 122.636613,23.9516129 L127.888548,31.481129 L122.066129,31.455 Z M120.694355,13.5 C119.845161,12.7945161 118.608387,12.446129 116.979677,12.446129 L112.563871,12.446129 L112.563871,20.6070968 L116.979677,20.6070968 C118.608387,20.6070968 119.845161,20.2543548 120.694355,19.5401613 C121.507008,18.7454351 121.965089,17.6567399 121.965089,16.5200806 C121.965089,15.3834214 121.507008,14.2947262 120.694355,13.5 Z" id="Shape" fill="#202D3A"></path>
                    <polygon id="Shape" fill="#202D3A" points="145.987258 23.1546774 145.987258 31.455 140.569839 31.455 140.569839 23.0806452 131.516129 8.03467742 137.268871 8.03467742 143.526774 18.4383871 149.780323 8.03467742 155.101935 8.03467742"></polygon>
                    <path d="M174.694355,26.433871 L163.807258,26.433871 L161.734355,31.455 L156.195,31.455 L166.646613,8.03467742 L171.99871,8.03467742 L182.467742,31.455 L176.767258,31.455 L174.694355,26.433871 Z M172.987258,22.3185484 L169.272581,13.3519355 L165.562258,22.3185484 L172.987258,22.3185484 Z" id="Shape" fill="#202D3A"></path>
                    <path d="M203.16629,31.455 L198.650323,24.9227419 L193.664032,24.9227419 L193.664032,31.455 L188.242258,31.455 L188.242258,8.03467742 L198.380323,8.03467742 C200.242411,7.98727528 202.092929,8.34074499 203.806452,9.07112903 C205.244938,9.68809125 206.472295,10.7111404 207.338226,12.015 C208.180058,13.3738378 208.602669,14.950677 208.553226,16.5483871 C208.683105,19.7886396 206.751705,22.757337 203.736774,23.9516129 L208.98871,31.481129 L203.16629,31.455 Z M201.794516,13.5 C200.923548,12.7945161 199.708548,12.446129 198.079839,12.446129 L193.664032,12.446129 L193.664032,20.6070968 L198.079839,20.6070968 C199.708548,20.6070968 200.945323,20.2543548 201.794516,19.5401613 C202.607169,18.7454351 203.06525,17.6567399 203.06525,16.5200806 C203.06525,15.3834214 202.607169,14.2947262 201.794516,13.5 Z" id="Shape" fill="#202D3A"></path>
                    <path d="M216.182903,8.03467742 L226.821774,8.03467742 C229.151518,7.98752177 231.46003,8.48561159 233.563065,9.48919355 C235.44002,10.3928289 237.019136,11.814789 238.113871,13.5870968 C240.274269,17.4064712 240.274269,22.0788514 238.113871,25.8982258 C237.02027,27.6714796 235.440842,29.09372 233.563065,29.996129 C231.460394,31.001213 229.151865,31.5007977 226.821774,31.455 L216.182903,31.455 L216.182903,8.03467742 Z M226.551774,27 C228.894677,27 230.762903,26.3467742 232.156452,25.0403226 C233.55,23.733871 234.246774,21.9672581 234.246774,19.7404839 C234.246774,17.5108065 233.55,15.7427419 232.156452,14.4362903 C230.762903,13.1298387 228.894677,12.4766129 226.551774,12.4766129 L221.600323,12.4766129 L221.600323,27 L226.551774,27 Z" id="Shape" fill="#202D3A"></path>
                </g>
                <path d="M252.967,32.279 C252.243663,32.279 251.727002,32.144668 251.417,31.876 C251.106998,31.607332 250.952,31.2766686 250.952,30.884 C250.952,30.7599994 250.962333,30.6101675 250.983,30.4345 C251.003667,30.2588325 251.034666,30.0780009 251.076,29.892 C251.179334,29.3339972 251.427331,28.8896683 251.82,28.559 C252.212669,28.2283317 252.801663,28.063 253.587,28.063 C254.310337,28.063 254.826998,28.197332 255.137,28.466 C255.447002,28.734668 255.602,29.0653314 255.602,29.458 C255.602,29.5820006 255.591667,29.7318325 255.571,29.9075 C255.550333,30.0831675 255.519334,30.2639991 255.478,30.45 C255.374666,31.0080028 255.126669,31.4523317 254.734,31.783 C254.341331,32.1136683 253.752337,32.279 252.967,32.279 Z M271.009,32.372 C270.285663,32.372 269.722502,32.1756686 269.3195,31.783 C268.916498,31.3903314 268.715,30.8220037 268.715,30.078 C268.715,29.9333326 268.720167,29.7370012 268.7305,29.489 C268.740833,29.2409988 268.766666,29.0343342 268.808,28.869 L270.668,18.081 L266.049,18.081 L266.39,16.004 L269.645,16.004 C270.182336,16.004 270.580165,15.8955011 270.8385,15.6785 C271.096835,15.4614989 271.277666,15.084336 271.381,14.547 L272.094,10.362 L274.388,10.362 L273.427,16.004 L280.03,16.004 L279.689,18.081 L273.086,18.081 L271.102,29.923 L271.722,30.295 L278.697,25.645 L279.906,27.195 L276.403,29.675 C275.679663,30.1916693 275.054503,30.6204983 274.5275,30.9615 C274.000497,31.3025017 273.525169,31.5763323 273.1015,31.783 C272.677831,31.9896677 272.300668,32.1394995 271.97,32.2325 C271.639332,32.3255005 271.319002,32.372 271.009,32.372 Z M290.787,32.372 C288.761657,32.372 287.201339,31.808839 286.106,30.6825 C285.010661,29.556161 284.463,27.8356782 284.463,25.521 C284.463,24.0743261 284.679998,22.746506 285.114,21.5375 C285.548002,20.328494 286.152496,19.2848377 286.9275,18.4065 C287.702504,17.5281623 288.632495,16.8461691 289.7175,16.3605 C290.802505,15.8748309 291.98566,15.632 293.267,15.632 C294.052337,15.632 294.775663,15.7249991 295.437,15.911 C296.098337,16.0970009 296.671831,16.3708315 297.1575,16.7325 C297.643169,17.0941685 298.020332,17.543664 298.289,18.081 C298.557668,18.618336 298.692,19.2383298 298.692,19.941 C298.692,20.4990028 298.562835,21.0776637 298.3045,21.677 C298.046165,22.2763363 297.508837,22.8343307 296.6925,23.351 C295.876163,23.8676692 294.698174,24.3016649 293.1585,24.653 C291.618826,25.0043351 289.578013,25.2109997 287.036,25.273 C287.015333,25.4383342 287.005,25.588166 287.005,25.7225 L287.005,25.986 C287.005,26.5440028 287.056666,27.0813307 287.16,27.598 C287.263334,28.1146693 287.459665,28.574498 287.749,28.9775 C288.038335,29.380502 288.441331,29.7008321 288.958,29.9385 C289.474669,30.1761679 290.156662,30.295 291.004,30.295 C291.58267,30.295 292.104498,30.227834 292.5695,30.0935 C293.034502,29.959166 293.478831,29.7525014 293.9025,29.4735 C294.326169,29.1944986 294.739498,28.8328356 295.1425,28.3885 C295.545502,27.9441644 295.974331,27.4016699 296.429,26.761 L298.134,27.815 C297.224662,29.3030074 296.196506,30.4344961 295.0495,31.2095 C293.902494,31.9845039 292.481675,32.372 290.787,32.372 Z M293.05,17.647 C291.437992,17.647 290.125672,18.1326618 289.113,19.104 C288.100328,20.0753382 287.480334,21.4703242 287.253,23.289 L287.222,23.599 C289.164676,23.5369997 290.730161,23.3871679 291.9185,23.1495 C293.106839,22.9118321 294.016164,22.6276683 294.6465,22.297 C295.276836,21.9663317 295.695332,21.6046686 295.902,21.212 C296.108668,20.8193314 296.212,20.4266686 296.212,20.034 C296.212,19.7033317 296.155167,19.3933348 296.0415,19.104 C295.927833,18.8146652 295.747001,18.5615011 295.499,18.3445 C295.250999,18.1274989 294.925502,17.9570006 294.5225,17.833 C294.119498,17.7089994 293.62867,17.647 293.05,17.647 Z M309.17,32.372 C308.177995,32.372 307.304837,32.2066683 306.5505,31.876 C305.796163,31.5453317 305.165836,31.0855029 304.6595,30.4965 C304.153164,29.9074971 303.770835,29.1945042 303.5125,28.3575 C303.254165,27.5204958 303.125,26.606005 303.125,25.614 C303.125,24.084659 303.341998,22.7051728 303.776,21.4755 C304.210002,20.2458272 304.798996,19.1970043 305.543,18.329 C306.287004,17.4609957 307.160162,16.7945023 308.1625,16.3295 C309.164838,15.8644977 310.234328,15.632 311.371,15.632 C312.218338,15.632 312.957164,15.7353323 313.5875,15.942 C314.217836,16.1486677 314.760331,16.4224983 315.215,16.7635 C315.669669,17.1045017 316.036499,17.5126643 316.3155,17.988 C316.594501,18.4633357 316.806333,18.9593307 316.951,19.476 L314.874,20.282 C314.563998,19.289995 314.10417,18.6183351 313.4945,18.267 C312.88483,17.9156649 312.084005,17.74 311.092,17.74 C309.727993,17.74 308.617171,18.1843289 307.7595,19.073 C306.901829,19.9616711 306.328335,21.2429916 306.039,22.917 L305.729,24.777 C305.667,25.1490019 305.625667,25.4383323 305.605,25.645 C305.584333,25.8516677 305.574,26.0583323 305.574,26.265 C305.574,27.6290068 305.930496,28.6364967 306.6435,29.2875 C307.356504,29.9385033 308.301994,30.264 309.48,30.264 C309.831335,30.264 310.187832,30.2226671 310.5495,30.14 C310.911168,30.0573329 311.303831,29.881668 311.7275,29.613 C312.151169,29.344332 312.610998,28.9516692 313.107,28.435 C313.603002,27.9183307 314.17133,27.2260043 314.812,26.358 L316.548,27.381 C316.051998,28.187004 315.545669,28.9051635 315.029,29.5355 C314.512331,30.1658365 313.959503,30.6876646 313.3705,31.101 C312.781497,31.5143354 312.140837,31.8294989 311.4485,32.0465 C310.756163,32.2635011 309.996671,32.372 309.17,32.372 Z M325.073,9.06 L327.491,9.06 L325.693,19.786 L325.817,19.786 C326.416336,18.5046603 327.129329,17.4920037 327.956,16.748 C328.782671,16.0039963 329.846993,15.632 331.149,15.632 C332.49234,15.632 333.551496,16.034996 334.3265,16.841 C335.101504,17.647004 335.489,18.7836593 335.489,20.251 C335.489,20.5610016 335.4735,20.8968315 335.4425,21.2585 C335.4115,21.6201685 335.365,21.9766649 335.303,22.328 L333.691,32 L331.273,32 L332.854,22.545 C332.916,22.1729981 332.957333,21.8371682 332.978,21.5375 C332.998667,21.2378318 333.009,21.0053342 333.009,20.84 C333.009,19.8893286 332.792002,19.1401694 332.358,18.5925 C331.923998,18.0448306 331.252338,17.771 330.343,17.771 C329.64033,17.771 329.015169,17.9259985 328.4675,18.236 C327.919831,18.5460015 327.418669,18.969664 326.964,19.507 C326.881333,19.6103338 326.752168,19.7704989 326.5765,19.9875 C326.400832,20.2045011 326.220001,20.4731651 326.034,20.7935 C325.847999,21.1138349 325.672334,21.475498 325.507,21.8785 C325.341666,22.281502 325.217667,22.7103311 325.135,23.165 L323.647,32 L321.229,32 L325.073,9.06 Z" id=".tech" fill="#202D3A"></path>
            </g>
        </g>
    </g>
</svg>
